svg/device/cellphone_vibration_fill.svg

<?xml version="1.0" encoding="UTF-8"?>
<svg width="24px" height="24px" viewBox="0 0 24 24" version="1.1" xmlns="http://www.w3.org/2000/svg" xmlns:xlink="http://www.w3.org/1999/xlink">
    <title>cellphone_vibration_fill</title>
    <g id="页面-1" stroke="none" stroke-width="1" fill="none" fill-rule="evenodd">
        <g id="Device" transform="translate(0.000000, -240.000000)">
            <g id="cellphone_vibration_fill" transform="translate(0.000000, 240.000000)">
                 <path d="M24,0 L24,24 L0,24 L0,0 L24,0 Z M12.5934901,23.257841 L12.5819402,23.2595131 L12.5108777,23.2950439 L12.4918791,23.2987469 L12.4918791,23.2987469 L12.4767152,23.2950439 L12.4056548,23.2595131 C12.3958229,23.2563662 12.3870493,23.2590235 12.3821421,23.2649074 L12.3780323,23.275831 L12.360941,23.7031097 L12.3658947,23.7234994 L12.3769048,23.7357139 L12.4804777,23.8096931 L12.4953491,23.8136134 L12.4953491,23.8136134 L12.5071152,23.8096931 L12.6106902,23.7357139 L12.6232938,23.7196733 L12.6232938,23.7196733 L12.6266527,23.7031097 L12.609561,23.275831 C12.6075724,23.2657013 12.6010112,23.2592993 12.5934901,23.257841 L12.5934901,23.257841 Z M12.8583906,23.1452862 L12.8445485,23.1473072 L12.6598443,23.2396597 L12.6498822,23.2499052 L12.6498822,23.2499052 L12.6471943,23.2611114 L12.6650943,23.6906389 L12.6699349,23.7034178 L12.6699349,23.7034178 L12.678386,23.7104931 L12.8793402,23.8032389 C12.8914285,23.8068999 12.9022333,23.8029875 12.9078286,23.7952264 L12.9118235,23.7811639 L12.8776777,23.1665331 C12.8752882,23.1545897 12.8674102,23.1470016 12.8583906,23.1452862 L12.8583906,23.1452862 Z M12.1430473,23.1473072 C12.1332178,23.1423925 12.1221763,23.1452606 12.1156365,23.1525954 L12.1099173,23.1665331 L12.0757714,23.7811639 C12.0751323,23.7926639 12.0828099,23.8018602 12.0926481,23.8045676 L12.108256,23.8032389 L12.3092106,23.7104931 L12.3186497,23.7024347 L12.3186497,23.7024347 L12.3225043,23.6906389 L12.340401,23.2611114 L12.337245,23.2485176 L12.337245,23.2485176 L12.3277531,23.2396597 L12.1430473,23.1473072 Z" id="MingCute" fill-rule="nonzero"></path>
                <path d="M15.5354,2.80759 L21.1922,8.46444 C21.9733,9.24549 21.9733,10.5118 21.1922,11.2929 L11.2927,21.1924 C10.5117,21.9734 9.24537,21.9734 8.46432,21.1924 L2.80747,15.5355 C2.02642,14.7545 2.02642,13.4881 2.80747,12.7071 L12.707,2.80759 C13.488,2.02654 14.7543,2.02654 15.5354,2.80759 Z M21.1922,15.5355 C21.5828,15.926 21.5828,16.5592 21.1922,16.9497 L16.9496,21.1924 C16.5591,21.5829 15.9259,21.5829 15.5354,21.1924 C15.1449,20.8018 15.1449,20.1687 15.5354,19.7782 L19.778,15.5355 C20.1686,15.145 20.8017,15.145 21.1922,15.5355 Z M8.81789,13.7677 L8.11079,14.4748 C7.91553,14.6701 7.91553,14.9867 8.11079,15.182 L8.81789,15.8891 C9.01316,16.0843 9.32974,16.0843 9.525,15.8891 L10.2321,15.182 C10.4274,14.9867 10.4274,14.6701 10.2321,14.4748 L9.525,13.7677 C9.32974,13.5725 9.01316,13.5725 8.81789,13.7677 Z M8.46432,2.80759 C8.85484,3.19811 8.85484,3.83128 8.46432,4.2218 L4.22168,8.46444 C3.83116,8.85497 3.19799,8.85497 2.80747,8.46444 C2.41694,8.07392 2.41694,7.44075 2.80747,7.05023 L7.05011,2.80759 C7.44063,2.41706 8.0738,2.41706 8.46432,2.80759 Z" id="形状" fill="#09244B"></path>
            </g>
        </g>
    </g>
</svg>

<svg xmlns="http://www.w3.org/2000/svg" width="24" height="24"><g fill="none" fill-rule="evenodd"><path d="M24 0v24H0V0h24ZM12.593 23.258l-.011.002-.071.035-.02.004-.014-.004-.071-.035c-.01-.004-.019-.001-.024.005l-.004.01-.017.428.005.02.01.013.104.074.015.004.012-.004.104-.074.012-.016.004-.017-.017-.427c-.002-.01-.009-.017-.017-.018Zm.265-.113-.013.002-.185.093-.01.01-.003.011.018.43.005.012.008.007.201.093c.012.004.023 0 .029-.008l.004-.014-.034-.614c-.003-.012-.01-.02-.02-.022Zm-.715.002a.023.023 0 0 0-.027.006l-.006.014-.034.614c0 .012.007.02.017.024l.015-.002.201-.093.01-.008.004-.011.017-.43-.003-.012-.01-.01-.184-.092Z"/><path fill="#09244B" d="m15.535 2.808 5.657 5.656a2 2 0 0 1 0 2.829l-9.9 9.9a2 2 0 0 1-2.828 0l-5.657-5.658a2 2 0 0 1 0-2.828l9.9-9.9a2 2 0 0 1 2.828 0Zm5.657 12.728a1 1 0 0 1 0 1.414l-4.242 4.242a1 1 0 0 1-1.415-1.414l4.243-4.242a1 1 0 0 1 1.414 0ZM8.818 13.768l-.707.707a.5.5 0 0 0 0 .707l.707.707a.5.5 0 0 0 .707 0l.707-.707a.5.5 0 0 0 0-.707l-.707-.707a.5.5 0 0 0-.707 0Zm-.354-10.96a1 1 0 0 1 0 1.414L4.222 8.464A1 1 0 1 1 2.807 7.05L7.05 2.808a1 1 0 0 1 1.414 0Z"/></g></svg>
